mecabify.xmp
<x:xmpmeta xmlns:x="adobe:ns:meta/" x:xmptk="Adobe XMP Core 5.6-c140 79.160451, 2017/05/06-01:08:21        ">
 <rdf:RDF xmlns:rdf="http://www.w3.org/1999/02/22-rdf-syntax-ns#">
  <rdf:Description rdf:about=""
    xmlns:crs="http://ns.adobe.com/camera-raw-settings/1.0/"
   crs:PresetType="Normal"
   crs:Cluster=""
   crs:UUID="16498F3429504EBDA33C118F60EE2A55"
   crs:SupportsAmount="False"
   crs:SupportsColor="True"
   crs:SupportsMonochrome="True"
   crs:SupportsHighDynamicRange="True"
   crs:SupportsNormalDynamicRange="True"
   crs:SupportsSceneReferred="True"
   crs:SupportsOutputReferred="True"
   crs:CameraModelRestriction=""
   crs:Copyright=""
   crs:ContactInfo=""
   crs:Version="10.3"
   crs:ProcessVersion="10.0"
   crs:WhiteBalance="As Shot"
   crs:Saturation="+9"
   crs:Sharpness="25"
   crs:LuminanceSmoothing="0"
   crs:ColorNoiseReduction="25"
   crs:Vibrance="+15"
   crs:HueAdjustmentRed="0"
   crs:HueAdjustmentOrange="0"
   crs:HueAdjustmentYellow="0"
   crs:HueAdjustmentGreen="0"
   crs:HueAdjustmentAqua="0"
   crs:HueAdjustmentBlue="0"
   crs:HueAdjustmentPurple="0"
   crs:HueAdjustmentMagenta="0"
   crs:SaturationAdjustmentRed="+20"
   crs:SaturationAdjustmentOrange="+90"
   crs:SaturationAdjustmentYellow="+58"
   crs:SaturationAdjustmentGreen="+7"
   crs:SaturationAdjustmentAqua="+13"
   crs:SaturationAdjustmentBlue="+20"
   crs:SaturationAdjustmentPurple="-3"
   crs:SaturationAdjustmentMagenta="+29"
   crs:LuminanceAdjustmentRed="+17"
   crs:LuminanceAdjustmentOrange="+20"
   crs:LuminanceAdjustmentYellow="+23"
   crs:LuminanceAdjustmentGreen="+15"
   crs:LuminanceAdjustmentAqua="+15"
   crs:LuminanceAdjustmentBlue="+15"
   crs:LuminanceAdjustmentPurple="+15"
   crs:LuminanceAdjustmentMagenta="+15"
   crs:SplitToningShadowHue="206"
   crs:SplitToningShadowSaturation="4"
   crs:SplitToningHighlightHue="222"
   crs:SplitToningHighlightSaturation="52"
   crs:SplitToningBalance="-19"
   crs:ParametricShadows="0"
   crs:ParametricDarks="0"
   crs:ParametricLights="0"
   crs:ParametricHighlights="0"
   crs:ParametricShadowSplit="25"
   crs:ParametricMidtoneSplit="50"
   crs:ParametricHighlightSplit="75"
   crs:SharpenRadius="+1.0"
   crs:SharpenDetail="25"
   crs:SharpenEdgeMasking="0"
   crs:ColorNoiseReductionDetail="50"
   crs:ColorNoiseReductionSmoothness="50"
   crs:Contrast2012="-70"
   crs:Highlights2012="-54"
   crs:Shadows2012="+33"
   crs:Whites2012="-40"
   crs:Blacks2012="+20"
   crs:Clarity2012="-18"
   crs:Dehaze="0"
   crs:ConvertToGrayscale="False"
   crs:ToneCurveName2012="Linear"
   crs:CameraProfile="Adobe Standard"
   crs:HasSettings="True">
   <crs:Name>
    <rdf:Alt>
     <rdf:li xml:lang="x-default">mecabify</rdf:li>
    </rdf:Alt>
   </crs:Name>
   <crs:ShortName>
    <rdf:Alt>
     <rdf:li xml:lang="x-default"/>
    </rdf:Alt>
   </crs:ShortName>
   <crs:SortName>
    <rdf:Alt>
     <rdf:li xml:lang="x-default">mecabify</rdf:li>
    </rdf:Alt>
   </crs:SortName>
   <crs:Group>
    <rdf:Alt>
     <rdf:li xml:lang="x-default">User Presets</rdf:li>
    </rdf:Alt>
   </crs:Group>
   <crs:Description>
    <rdf:Alt>
     <rdf:li xml:lang="x-default"/>
    </rdf:Alt>
   </crs:Description>
   <crs:ToneCurvePV2012>
    <rdf:Seq>
     <rdf:li>0, 0</rdf:li>
     <rdf:li>255, 255</rdf:li>
    </rdf:Seq>
   </crs:ToneCurvePV2012>
   <crs:ToneCurvePV2012Red>
    <rdf:Seq>
     <rdf:li>0, 0</rdf:li>
     <rdf:li>255, 255</rdf:li>
    </rdf:Seq>
   </crs:ToneCurvePV2012Red>
   <crs:ToneCurvePV2012Green>
    <rdf:Seq>
     <rdf:li>0, 0</rdf:li>
     <rdf:li>255, 255</rdf:li>
    </rdf:Seq>
   </crs:ToneCurvePV2012Green>
   <crs:ToneCurvePV2012Blue>
    <rdf:Seq>
     <rdf:li>0, 0</rdf:li>
     <rdf:li>255, 255</rdf:li>
    </rdf:Seq>
   </crs:ToneCurvePV2012Blue>
   <crs:Look
    crs:Name=""/>
  </rdf:Description>
 </rdf:RDF>
</x:xmpmeta>
